X:1
T:Schottis från Bylberg
R:schottis
N:Transcribed by sarah Chaney, July 1987
Z:ABC transcription by Dale Abraham, Mar 1999
M:2/4
L:1/8
Q:1/4=140
K:D
P:A
|: "D"DF AF| DF AF|"G"GA BA|G2 G2|"A"Ac ec|Ac ec\
|1 "D"de fe|d2 d2 :|2 "D"d2 d2 d2 z2|
P:B
|: "D"A2 f2|fe dc|"G"B2 g2|gf ed|"A"c2 a2|
|1 a2 ^ga|("D"ba) fd|A2 A2:|2 ag ec|"D"d2 d2|d2 z2||

